!!! OTL: Berkowitz445
!!! Chapter: 1
!!! Section: IV
!!! Page: 110
!!! Mode: 
!!! Encoder: DJB
**kern
*staff1
*I"Piano
=1-
*clefF4
*k[b-e-]
*g:
*M4/4
8GG/L
8AA/
8BB-/
8C/J
8C#\L
8D\
8A\
8Cn\J
=2
8BB-\L
8D\
8G\
8F\J
8E-\L
8D\J
4C/
=3
8r
8E-\L
8A\
8c\J
8e-\L
8d\
8c\
8B-\J
=4
8A\L
8G\J
4F#\
8r
8e-\L
8d\
8B-\J
=5
8G\L
8F\J
4E-\
8C#\L
8D\
8E-\
8D\J
=6
!!linebreak:original
*M2/4
4B-\
8A\L
8B-\J
=7
*M4/4
2A\
4G\
4r
==
*-
